X:1
T:Title
%%score { ( 1 3 ) | ( 2 4 ) }
L:1/8
Q:1/4=100
M:4/4
K:Bb
V:1 treble nm="Grand Piano"
V:3 treble 
V:2 bass 
V:4 bass 
V:1
 [DF]3 [EG] [DF]>[B,D] [DF]>[DB] | [DB]6 z2 | A3 B A>F [FA]>[=EG] | F6 z2 | %4
w: Wm.~J.~Kirkpatrick * * * * *||||
 [DF]3 [EG] [DF]>[B,D] [DF]>[DB] | [Fd]6 z2 | c3 d c>B d>c | [DB]6 z2 | [EG]2 [EG]2 [GB]4 | %9
w: |||||
 [EG]2 [DF]2 [DF]4 | F2 F2 [=EB]2 [EB]2 | [Ec]6 z2 | [Fd]3 [_Ad] [Ge]>[Fd] [Ec]>[DB] | G4 B4 | %14
w: |||||
 F2 F2 G2 A2 | [DB]6 z2 |] %16
w: ||
V:2
 [B,,B,]3 [B,,B,] [B,,B,]>[B,,F,] [B,,B,]>[B,,B,] | [B,,F,]6 z2 | %2
 [C,F,C]3 [C,G,C] [C,F,C]>[C,A,] [C,C]>[C,B,] | F,4- [F,C]2 z2 | %4
 [B,,B,]3 [B,,B,] [B,,B,]>[B,,F,] [B,,F,]>[B,,F,] | [B,,B,]6 z2 | %6
 [F,A,E]3 [F,B,F] [F,A,E]>[F,D] [F,B,F]>[F,A,E] | [B,,B,]6 z2 | [E,B,]2 [E,B,]2 [E,B,]4 | %9
 [B,,B,]2 [B,,B,]2 [B,,B,]4 | [D,B,]2 [D,B,]2 [C,G,]2 [C,G,]2 | [F,A,]6 z2 | %12
 [B,,B,]3 [B,,B,] [B,,B,]>[B,,B,] [B,,B,]>[B,,B,] | E4 G4 | [F,B,D]2 [F,B,D]2 [F,A,E]2 [F,E]2 | %15
 [B,,F,]6 z2 |] %16
V:3
 x8 | x8 | x8 | z4 E2 z2 | x8 | x8 | x8 | x8 | x8 | x8 | x8 | x8 | x8 | x8 | x8 | x8 |] %16
V:4
 x8 | x8 | x8 | A,4 z4 | x8 | x8 | x8 | x8 | x8 | x8 | x8 | x8 | x8 | [E,B,]8 | x8 | x8 |] %16

